X: 273
T:Tea Gardens
C:Angus Chisholm
L:1/8
M:6/8
K:G
B2 c|d^cd b2 a|g2 d B2 d|cBc cec|A3- A2 G|
FDF A2 d|f2 d A2 B|[1 cBc edc|B3 :|[2 cBc bfa|g3 g2||
D|B,DG BGD|B,DG Bdg|e^de B2 =d|c3- c2 B|
ABc ABc|a2 g f2 e|[1 d^cd ed=c|B3 B2:|[2 c'bc' e2 f|g3 |]
